X:1
T:Title
%%score ( 1 2 ) ( 3 4 )
L:1/8
Q:1/4=90
M:4/4
K:Eb
V:1 treble nm="Midi_20"
V:2 treble 
V:3 bass nm="Midi_20"
V:4 bass 
V:1
"^Olivet (66 4. 66 64)""^Lowell Mason\n(1792-1872)""^Ray Palmer\n(1808-87)""^My faith looks up to Thee" E4 G2 B2 | %1
 B3 A G4 | F4 F2 A2 | A3 G F4 | G4 F2 =A2 | B8 || B4 G2 A2 | B3 c B4 | B4 G2 A2 | B3 c B4 || %10
 e4 d2 c2 | B3 A G2 E2 | F4 B4 | E8 |] %14
V:2
 E4 E2 G2 | F3 D E4 | D4 D2 F2 | F3 E D4 | E4 D2 E2 | D8 || E4 E2 E2 | E3 E E4 | E4 E2 E2 | %9
 E3 E E4 || E4 E2 E2 | F3 D E2 E2 | E4 D4 | E8 |] %14
V:3
 G,4 B,2 G,2 | B,3 B, B,4 | B,4 B,2 B,2 | B,3 B, B,4 | B,4 B,2 C2 | B,8 || %6
"^1. My faith looks up to thee,\nThou Lamb of Calvary\nSaviour divine!\nNow hear me while I pray,\nTake all my guilt away,\nO let me from this day\nBe wholly thine!\n\n2. May thy rich grace impart\nStrength to my fainting heart,\nMy zeal inspire!\nAs thou hast died for me,\nO may my love to Thee\nPure, warm, and changeless be,\nA living fire!\n" G,4 E,2 F,2 | %7
 G,3 A, G,4 | G,4 E,2 F,2 | G,3 A, G,4 || %10
"^3. While life's dark maze I tread,\nAnd griefs around me spread,\nBe thou my guide;\nBid darkness turn to day,\nWipe sorrow's tears away,\nNor let me ever stray\nFrom thee aside.\n\n4. When ends life's transient dream,\nWhen death's cold, sullen stream\nShall o'er me roll;\nBlest Saviour, then in love,\nFear and distrust remove;\nO bear me safe above,\nA ransomed soul! \n" (G,2 C2) B,2 A,2 | %11
 F,3 F, E,2 B,2 | C4 (B,2 A,2) | G,8 |] %14
V:4
 E,4 E,2 E,2 | D,3 B,, E,4 | B,,4 B,,2 B,,2 | D,3 E, B,,4 | E,4 F,2 F,2 | B,,8 || E,4 E,2 E,2 | %7
 E,3 E, E,4 | E,4 E,2 E,2 | E,3 E, E,4 || C,4 C,2 C,2 | D,3 B,, B,,2 G,,2 | A,,4 B,,4 | E,8 |] %14

